X:143
M:2/4
L:1/8
Q:1/4=140
K:Bb
f|gfbf|gfba|gfed|cc/d/ cf|gfbf|gfbg|fedc|BB/c/ B2:|

